X: 2434
T: HOOP-DE-DOODEN-DOO
R: Jig
B: Kerr's v.2 p.49 #434
Z: 2016 John Chambers <jc:trillian.mit.edu>
M: C
L: 1/8
K: A
E2 !segno!|\
A2B2 c2d2 | (3efe (3dcB e2a2 |\
A2B2 c2d2 | (3efe (3dcB A2E2 |\
A2B2 c2d2 | (3efe (3dcB e2(ef) |
=gefd (3eee e2 | zedB A2 :: ef |\
=gefd (3eee e2 | zedB e2ef |\
=gefd (3eee e2 | (3efe (3dcB "_D.C."A2 !segno!:|
